img/viber.svg

<svg width="42" height="42" viewBox="0 0 42 42" fill="none" xmlns="http://www.w3.org/2000/svg">
<path d="M21 42C32.598 42 42 32.598 42 21C42 9.40202 32.598 0 21 0C9.40202 0 0 9.40202 0 21C0 32.598 9.40202 42 21 42Z" fill="#6F3FAA"/>
<path d="M30.1104 11.5206C24.9989 10.286 19.8783 8.84192 14.6363 10.6766C11.2423 11.9493 11.2423 15.6261 11.3838 18.7373C11.3838 19.5857 10.3939 20.7171 10.8181 21.707C11.6665 24.5352 12.3736 27.3635 15.3433 28.7776C15.7676 29.0605 15.3433 29.6261 15.6262 30.0504C15.4847 30.0504 15.2019 30.1918 15.2019 30.3332C15.2019 31.011 15.5061 32.0478 15.304 32.7162L24.328 41.7364C33.6049 40.259 40.8555 32.7073 41.8756 23.2858L30.1104 11.5206Z" fill="#512D84"/>
<path d="M32.1091 14.759L32.1022 14.7313C31.5411 12.4629 29.0114 10.0289 26.6883 9.5225L26.6621 9.51708C22.9046 8.80029 19.0947 8.80029 15.338 9.51708L15.311 9.5225C12.9887 10.0289 10.4589 12.4631 9.89708 14.7313L9.89085 14.759C9.19719 17.9268 9.19719 21.1395 9.89085 24.3073L9.89708 24.335C10.435 26.5066 12.7763 28.8289 15.0127 29.4675V31.9996C15.0127 32.9162 16.1296 33.3663 16.7647 32.7049L19.3302 30.0381C19.8867 30.0692 20.4434 30.0866 21 30.0866C22.8914 30.0866 24.7837 29.9077 26.6621 29.5494L26.6882 29.5439C29.0113 29.0376 31.541 26.6034 32.1021 24.3351L32.109 24.3074C32.8027 21.1395 32.8027 17.927 32.1091 14.759ZM30.0787 23.848C29.7041 25.3279 27.7834 27.1677 26.2573 27.5077C24.2594 27.8877 22.2457 28.05 20.2339 27.9943C20.1939 27.9931 20.1554 28.0087 20.1276 28.0374C19.8421 28.3305 18.2544 29.9604 18.2544 29.9604L16.2621 32.0053C16.1164 32.1572 15.8604 32.0538 15.8604 31.8442V27.6494C15.8604 27.5801 15.811 27.5213 15.7429 27.5079C15.7425 27.5077 15.7421 27.5077 15.7417 27.5076C14.2156 27.1677 12.2956 25.3279 11.9203 23.8479C11.296 20.9846 11.296 18.0818 11.9203 15.2184C12.2956 13.7385 14.2156 11.8987 15.7417 11.5588C19.231 10.8951 22.7689 10.8951 26.2574 11.5588C27.7842 11.8987 29.7042 13.7385 30.0788 15.2184C30.7038 18.0819 30.7038 20.9846 30.0787 23.848Z" fill="white"/>
<path d="M24.3198 25.784C24.0852 25.7127 23.8617 25.6649 23.6539 25.5788C21.5021 24.6861 19.5219 23.5343 17.9534 21.7689C17.0614 20.765 16.3632 19.6316 15.7731 18.4322C15.4932 17.8633 15.2574 17.2723 15.0169 16.685C14.7977 16.1495 15.1206 15.5962 15.4605 15.1927C15.7796 14.8139 16.1901 14.5242 16.6347 14.3105C16.9817 14.1438 17.324 14.2399 17.5774 14.534C18.1253 15.1699 18.6286 15.8383 19.036 16.5755C19.2866 17.0288 19.2178 17.583 18.7636 17.8916C18.6532 17.9665 18.5526 18.0546 18.4498 18.1393C18.3596 18.2135 18.2748 18.2885 18.2129 18.389C18.1 18.5728 18.0946 18.7898 18.1673 18.9897C18.7273 20.5287 19.6712 21.7255 21.2204 22.3702C21.4683 22.4733 21.7172 22.5934 22.0028 22.5601C22.481 22.5043 22.6359 21.9796 22.9711 21.7055C23.2986 21.4377 23.7173 21.4342 24.0701 21.6575C24.4231 21.8809 24.7652 22.1206 25.1053 22.363C25.4392 22.6009 25.7715 22.8335 26.0793 23.1047C26.3755 23.3655 26.4774 23.7076 26.3107 24.0614C26.0055 24.7095 25.5613 25.2485 24.9207 25.5928C24.7398 25.6897 24.5238 25.7211 24.3198 25.784C24.0852 25.7127 24.5238 25.7211 24.3198 25.784Z" fill="white"/>
<path d="M21.0057 13.57C23.8202 13.6489 26.1319 15.5166 26.6273 18.2991C26.7117 18.7733 26.7417 19.2579 26.7793 19.7392C26.7951 19.9416 26.6804 20.1339 26.4621 20.1366C26.2365 20.1393 26.135 19.9504 26.1202 19.7482C26.0913 19.3477 26.0712 18.9454 26.016 18.5484C25.7247 16.4517 24.0529 14.7172 21.966 14.345C21.6519 14.289 21.3307 14.2743 21.0125 14.2409C20.8114 14.2198 20.5481 14.2077 20.5035 13.9576C20.4662 13.748 20.6431 13.5812 20.8427 13.5705C20.8967 13.5673 20.9513 13.5698 21.0057 13.57C23.8203 13.6489 20.9513 13.5698 21.0057 13.57Z" fill="white"/>
<path d="M25.2827 19.1141C25.2781 19.1493 25.2757 19.2319 25.255 19.3097C25.1804 19.5922 24.7518 19.6276 24.6533 19.3425C24.624 19.2579 24.6197 19.1616 24.6195 19.0706C24.6185 18.4745 24.489 17.879 24.1884 17.3603C23.8793 16.8272 23.4072 16.3792 22.8535 16.1079C22.5187 15.944 22.1567 15.8421 21.7897 15.7814C21.6293 15.7549 21.4672 15.7389 21.306 15.7164C21.1107 15.6892 21.0064 15.5648 21.0157 15.3724C21.0243 15.192 21.1562 15.0622 21.3527 15.0734C21.9985 15.11 22.6225 15.2498 23.1968 15.5538C24.3644 16.1722 25.0315 17.1482 25.2262 18.4516C25.235 18.5108 25.2491 18.5692 25.2536 18.6284C25.2646 18.7746 25.2716 18.921 25.2827 19.1141C25.2781 19.1492 25.2716 18.921 25.2827 19.1141Z" fill="white"/>
<path d="M23.5323 19.0467C23.2969 19.051 23.1709 18.9205 23.1465 18.7048C23.1297 18.5544 23.1163 18.4018 23.0803 18.2553C23.0096 17.9668 22.8563 17.6995 22.6137 17.5227C22.4991 17.4393 22.3693 17.3785 22.2334 17.3391C22.0607 17.2892 21.8812 17.303 21.709 17.2608C21.5219 17.215 21.4184 17.0634 21.4478 16.8879C21.4746 16.7281 21.6299 16.6034 21.8046 16.6161C22.8958 16.6949 23.6756 17.259 23.7869 18.5436C23.7949 18.6343 23.8041 18.73 23.784 18.8169C23.7494 18.9651 23.6395 19.0395 23.5323 19.0467C23.2968 19.0509 23.6395 19.0395 23.5323 19.0467Z" fill="white"/>
<path d="M32.1093 14.7592L32.1024 14.7315C31.7879 13.4599 30.8545 12.1364 29.6859 11.1294L28.1061 12.5295C29.0455 13.278 29.8504 14.315 30.0791 15.2185C30.7042 18.082 30.7042 20.9846 30.0791 23.8482C29.7044 25.3281 27.7837 27.1679 26.2576 27.5078C24.2598 27.8878 22.246 28.0501 20.2343 27.9944C20.1942 27.9933 20.1558 28.0089 20.1279 28.0376C19.8424 28.3306 18.2548 29.9606 18.2548 29.9606L16.2624 32.0054C16.1167 32.1574 15.8608 32.0541 15.8608 31.8443V27.6496C15.8608 27.5803 15.8113 27.5215 15.7432 27.508C15.7428 27.508 15.7425 27.5078 15.7421 27.5078C14.8747 27.3146 13.8806 26.6368 13.1148 25.8163L11.5537 27.1996C12.5287 28.2601 13.7861 29.1175 15.0128 29.4678V31.9999C15.0128 32.9165 16.1297 33.3666 16.7647 32.7052L19.3303 30.0384C19.8868 30.0695 20.4434 30.0869 21.0001 30.0869C22.8915 30.0869 24.7838 29.908 26.6621 29.5497L26.6883 29.5443C29.0114 29.038 31.5411 26.6039 32.1022 24.3355L32.1091 24.3078C32.8028 21.1397 32.8028 17.9272 32.1093 14.7592Z" fill="#D1D1D1"/>
<path d="M24.3197 25.7847C24.5236 25.7219 24.085 25.7134 24.3197 25.7847V25.7847Z" fill="white"/>
<path d="M26.0793 23.1056C25.7715 22.8344 25.439 22.6017 25.1053 22.3638C24.7652 22.1214 24.4231 21.8817 24.0702 21.6583C23.7173 21.435 23.2987 21.4385 22.9711 21.7064C22.6359 21.9804 22.4811 22.5051 22.0028 22.561C21.7172 22.5942 21.4683 22.4741 21.2204 22.3711C20.2673 21.9745 19.5441 21.3681 18.9975 20.6025L17.8359 21.632C17.8754 21.6777 17.913 21.7246 17.9532 21.7698C19.5218 23.5352 21.5021 24.6869 23.6537 25.5796C23.8613 25.6658 24.085 25.7137 24.3196 25.7848C24.085 25.7135 24.5237 25.722 24.3196 25.7848C24.5237 25.722 24.7396 25.6904 24.9207 25.5935C25.5614 25.2493 26.0054 24.7102 26.3106 24.0621C26.4774 23.7084 26.3755 23.3663 26.0793 23.1056Z" fill="#D1D1D1"/>
<path d="M21.0139 13.5716C21.0113 13.5716 21.0088 13.5714 21.0062 13.5714C21.0037 13.5712 21.0069 13.5714 21.0139 13.5716Z" fill="white"/>
<path d="M21.0063 13.5703C21.0087 13.5703 21.011 13.5706 21.0134 13.5706C21.1696 13.5761 23.7099 13.6461 21.0063 13.5703Z" fill="white"/>
<path d="M25.0431 15.2441L24.5479 15.6831C25.3261 16.4402 25.8627 17.4437 26.0161 18.548C26.0713 18.9452 26.0915 19.3474 26.1205 19.7479C26.1352 19.9503 26.2365 20.139 26.4623 20.1364C26.6807 20.1337 26.7953 19.9415 26.7795 19.739C26.7419 19.2578 26.7119 18.773 26.6275 18.299C26.4107 17.081 25.8457 16.0383 25.0431 15.2441Z" fill="#D1D1D1"/>
<path d="M25.2266 18.452C25.0848 17.5022 24.6908 16.7272 24.0363 16.1367L23.5425 16.5744C23.7978 16.801 24.0188 17.0672 24.1889 17.3608C24.4895 17.8795 24.6191 18.475 24.62 19.0711C24.6202 19.1621 24.6246 19.2584 24.6538 19.3432C24.7525 19.6284 25.1809 19.593 25.2555 19.3103C25.2762 19.2324 25.2786 19.1498 25.2833 19.1148C25.2786 19.15 25.2719 18.9218 25.2833 19.1148C25.2719 18.9218 25.2651 18.7753 25.254 18.6289C25.2496 18.5694 25.2354 18.511 25.2266 18.452Z" fill="#D1D1D1"/>
<path d="M25.283 19.1147C25.2719 18.9216 25.2783 19.1497 25.283 19.1147V19.1147Z" fill="white"/>
<path d="M23.5322 19.0465C23.5359 19.0463 23.5395 19.0444 23.543 19.0439C23.533 19.0439 23.5177 19.0442 23.502 19.0448C23.5122 19.045 23.5215 19.0466 23.5322 19.0465Z" fill="white"/>
<path d="M23.5323 19.0476C23.5217 19.0478 23.5123 19.0462 23.5022 19.0459C23.4512 19.0473 23.3986 19.05 23.5323 19.0476Z" fill="white"/>
<path d="M23.543 19.0439C23.5393 19.0444 23.5358 19.0463 23.5322 19.0465C23.5599 19.0446 23.5575 19.0439 23.543 19.0439Z" fill="white"/>
<path d="M23.0354 17.0234L22.5327 17.469C22.5604 17.4858 22.5876 17.5034 22.6139 17.5225C22.8566 17.6993 23.0099 17.9665 23.0806 18.2551C23.1165 18.4016 23.1298 18.554 23.1468 18.7046C23.17 18.9107 23.2871 19.0375 23.5025 19.0448C23.5182 19.0444 23.5336 19.0441 23.5433 19.044C23.647 19.0325 23.751 18.9599 23.7842 18.8165C23.8043 18.7298 23.7951 18.6339 23.7871 18.5432C23.7246 17.825 23.4531 17.3323 23.0354 17.0234Z" fill="#D1D1D1"/>
</svg>

<svg width="42" height="42" fill="none" xmlns="http://www.w3.org/2000/svg"><path d="M21 42c11.598 0 21-9.402 21-21S32.598 0 21 0 0 9.402 0 21s9.402 21 21 21z" fill="#6F3FAA"/><path d="M30.11 11.52c-5.11-1.233-10.232-2.677-15.474-.842-3.394 1.272-3.394 4.95-3.252 8.06 0 .849-.99 1.98-.566 2.97.848 2.828 1.556 5.656 4.525 7.07.425.284 0 .85.283 1.273-.141 0-.424.142-.424.283 0 .678.304 1.715.102 2.383l9.024 9.02c9.277-1.477 16.527-9.029 17.548-18.45L30.11 11.52z" fill="#512D84"/><path d="M32.11 14.759l-.008-.028c-.56-2.268-3.09-4.702-5.414-5.208l-.026-.006a30.086 30.086 0 0 0-11.324 0l-.027.006c-2.322.506-4.852 2.94-5.414 5.208l-.006.028a22.166 22.166 0 0 0 0 9.548l.006.028c.538 2.172 2.88 4.494 5.116 5.133V32c0 .916 1.117 1.366 1.752.705l2.565-2.667c.557.031 1.113.049 1.67.049 1.891 0 3.784-.18 5.662-.538l.026-.005c2.323-.506 4.853-2.94 5.414-5.209l.007-.028c.694-3.167.694-6.38 0-9.548zm-2.031 9.089c-.375 1.48-2.296 3.32-3.822 3.66-1.998.38-4.011.542-6.023.486a.142.142 0 0 0-.106.043l-1.874 1.923-1.992 2.045a.233.233 0 0 1-.402-.16v-4.196a.144.144 0 0 0-.117-.141h-.001c-1.526-.34-3.446-2.18-3.822-3.66a20.115 20.115 0 0 1 0-8.63c.376-1.48 2.296-3.32 3.822-3.66a28.017 28.017 0 0 1 10.515 0c1.527.34 3.447 2.18 3.822 3.66a20.091 20.091 0 0 1 0 8.63z" fill="#fff"/><path d="M24.32 25.784c-.235-.071-.458-.12-.666-.205-2.152-.893-4.132-2.045-5.7-3.81-.893-1.004-1.59-2.137-2.18-3.337-.28-.569-.517-1.16-.757-1.747-.22-.535.104-1.089.444-1.492a3.5 3.5 0 0 1 1.174-.883c.347-.166.689-.07.942.224.548.636 1.052 1.304 1.459 2.042.25.453.182 1.007-.272 1.316-.11.075-.211.163-.314.247a1.03 1.03 0 0 0-.237.25.684.684 0 0 0-.046.6c.56 1.54 1.504 2.736 3.053 3.381.248.103.497.223.783.19.478-.056.633-.58.968-.854.328-.268.746-.272 1.1-.049.352.224.694.464 1.034.706.334.238.666.47.974.742.296.26.398.603.232.956-.305.648-.75 1.188-1.39 1.532-.181.097-.397.128-.601.191-.235-.071.204-.063 0 0zM21.006 13.57c2.814.079 5.126 1.947 5.621 4.73.085.473.115.958.152 1.44.016.202-.099.394-.317.397-.226.002-.327-.187-.342-.389-.029-.4-.049-.803-.104-1.2-.291-2.096-1.963-3.83-4.05-4.203-.314-.056-.635-.07-.954-.104-.2-.021-.464-.033-.509-.283-.037-.21.14-.377.34-.388.054-.003.108 0 .163 0 2.814.079-.055 0 0 0z" fill="#fff"/><path d="M25.283 19.114c-.005.035-.007.118-.028.196-.075.282-.503.318-.602.033a.849.849 0 0 1-.034-.272c0-.597-.13-1.192-.43-1.71a3.184 3.184 0 0 0-1.335-1.253 3.838 3.838 0 0 0-1.064-.327c-.16-.026-.323-.042-.484-.065-.195-.027-.3-.151-.29-.344.008-.18.14-.31.337-.299.645.037 1.27.177 1.844.48 1.167.62 1.835 1.595 2.03 2.899.008.059.022.117.027.176.01.147.018.293.029.486-.005.035-.011-.193 0 0z" fill="#fff"/><path d="M23.532 19.047c-.235.004-.361-.127-.386-.342-.016-.15-.03-.303-.066-.45a1.265 1.265 0 0 0-.466-.732 1.225 1.225 0 0 0-.38-.184c-.173-.05-.353-.036-.525-.078-.187-.046-.29-.198-.261-.373a.338.338 0 0 1 .357-.272c1.09.079 1.87.643 1.982 1.928.008.09.017.186-.003.273-.035.148-.144.223-.252.23-.235.004.108-.008 0 0z" fill="#fff"/><path d="M32.11 14.76l-.008-.028c-.314-1.272-1.247-2.596-2.416-3.603l-1.58 1.4c.94.749 1.744 1.786 1.973 2.69a20.09 20.09 0 0 1 0 8.63c-.375 1.48-2.295 3.319-3.821 3.659-1.998.38-4.012.542-6.024.486a.143.143 0 0 0-.106.044l-1.873 1.923-1.993 2.044a.233.233 0 0 1-.401-.16V27.65c0-.07-.05-.128-.118-.142-.868-.193-1.862-.871-2.628-1.692L11.554 27.2c.975 1.06 2.232 1.918 3.459 2.268V32c0 .916 1.117 1.367 1.752.705l2.565-2.667c.557.032 1.113.049 1.67.049a30.19 30.19 0 0 0 5.662-.537l.026-.006c2.323-.506 4.853-2.94 5.414-5.209l.007-.027c.694-3.168.694-6.38 0-9.549z" fill="#D1D1D1"/><path d="M24.32 25.785c.204-.063-.235-.072 0 0z" fill="#fff"/><path d="M26.08 23.106c-.308-.272-.641-.504-.975-.742-.34-.243-.682-.482-1.035-.706-.353-.223-.771-.22-1.099.048-.335.274-.49.8-.968.855-.286.033-.535-.087-.783-.19a5.063 5.063 0 0 1-2.223-1.768l-1.161 1.029c.04.046.077.093.117.138 1.569 1.765 3.55 2.917 5.7 3.81.208.086.432.134.667.205-.235-.072.204-.063 0 0 .204-.063.42-.095.6-.192.641-.344 1.085-.883 1.39-1.53.167-.355.066-.697-.23-.957z" fill="#D1D1D1"/><path d="M21.014 13.572zm-.008-.002h.007c.157.006 2.697.076-.007 0z" fill="#fff"/><path d="M25.043 15.244l-.495.44a4.97 4.97 0 0 1 1.468 2.864c.055.397.076.8.105 1.2.014.202.116.391.341.388.219-.002.333-.194.317-.397-.037-.481-.067-.966-.151-1.44a5.651 5.651 0 0 0-1.585-3.055zm.184 3.208c-.142-.95-.536-1.725-1.19-2.315l-.494.437c.255.227.476.493.646.787.3.518.43 1.114.431 1.71 0 .091.005.187.034.272.099.285.527.25.602-.033.02-.078.023-.16.027-.195-.004.035-.011-.193 0 0-.011-.193-.018-.34-.029-.486-.004-.06-.019-.118-.027-.177z" fill="#D1D1D1"/><path d="M25.283 19.115c-.011-.193-.005.035 0 0zm-1.751-.068c.004 0 .008-.003.011-.003h-.041l.03.003zm0 .001l-.03-.002a.43.43 0 0 0 .03.002z" fill="#fff"/><path d="M23.543 19.044c-.004 0-.007.002-.01.003.027-.002.024-.003.01-.003z" fill="#fff"/><path d="M23.035 17.023l-.502.446c.027.017.055.034.08.053.244.177.397.445.468.733.035.147.049.299.066.45.023.206.14.333.356.34l.04-.001a.279.279 0 0 0 .241-.227c.02-.087.011-.183.003-.274-.062-.718-.334-1.21-.752-1.52z" fill="#D1D1D1"/></svg>
